!!!OTL: Der schwatzhafte Junggeselle
!!!OTL-incipit:Nechten war ich trunken,
!!!ARE: Europa, Mitteleuropa, Deutschland
!!!YOR: 6, S. 312
!!    1611 gedruckt in Coburg
!!!SCT: Q0139M
!!!TXL: @@DE
!!!YEM: Copyright 1995, estate of Helmut Schaffrath.
**kern	**text
*ICvox	*
*M4/4	*
*met(c)	*
*k[]	*
=1	=1
!LO:TX:a:t=16 Franck 1611	!
{4g	Nech-
4b	-ten
4.dd	war
8cc	ich
=2	=2
(4b	trun-
4a)	.
4g	-ken,
8r}	.
{8d	da
=3	=3
4g	redt
4b	ich
4.dd	nach
8cc	ge-
=4-	=4-
(4b	-dun-
4a)	.
4g	-ken,
8r}	.
{8b	und
=5-	=5-
8bL	al-
8bJ	-les
8bL	was
8aJ	ich
4b	red-
8aL	-te,
8gJ	das
=6-	=6-
8bL	thet
8ddJ	der
8ccL	küh-
8bJ	-le
4a	Wein,
8r}	.
{8a	stand
=7-	=7-
8gL	auff
8aJ	du
8bL	fei-
8cc#J	-nes
8.ddL	Mäg-
16ddJ	-de-
8ddL	-lein
8ccJ	und
=8-	=8-
8bL	laß
8bJ	mich
8aL	zu
8aJ	dir
2g}	eijn.
==	==
!!!AGN: Ballade, Indiskretion, verweigerter Beischlaf
!! Stimme aus einem Quodlibet von Melchior Franck.
!!    Taktstriche entsprechend der Vorzeichnung gesetzt. Schlusspause
!!    weggelassen.
!!!ONB: ESAC (Essen Associative Code) Database: BALLADE
!!!AMT: simple quadruple
!!!AIN: vox
!!!EED: Helmut Schaffrath
!!!EEV: 1.0
!!!source: Deutsche Volkslieder mit ihren Melodien Balladen. Herausgegeben vom Deutschen Volksliedarchiv. Sechster Band. Freiburg/Breisgau 1976.
!!!page: 312
!!!ENC: Anna Maria Matuszewska
!!!EEV: 2025/03/06
*-	*-
